epam-assets/icon-sources/18/content-code_check.svg

<svg width="18" height="18" viewBox="0 0 18 18" fill="none" xmlns="http://www.w3.org/2000/svg">
<g id="18/content-code_check">
<g id="icon">
<path d="M9.3 9L12.675 5.625L9.3 2.25L8.2125 3.3375L10.5 5.625L8.2125 7.9125L9.3 9Z" fill="#6C6F80"/>
<path d="M4.875 9L5.9625 7.9125L3.675 5.625L5.9625 3.3375L4.875 2.25L1.5 5.625L4.875 9Z" fill="#6C6F80"/>
<path d="M9.50625 14.2406L15.4969 8.25L16.5656 9.31875L9.50625 16.3781L5.25 12.1219L6.31875 11.0531L9.50625 14.2406Z" fill="#6C6F80"/>
</g>
</g>
</svg>

<svg xmlns="http://www.w3.org/2000/svg" width="18" height="18" fill="none" viewBox="0 0 18 18">
  <path fill="#6C6F80" d="m9.3 9 3.375-3.375L9.3 2.25 8.212 3.337 10.5 5.625 8.213 7.912 9.3 9ZM4.875 9l1.088-1.088-2.288-2.287 2.288-2.288L4.875 2.25 1.5 5.625 4.875 9Zm4.631 5.24 5.99-5.99 1.07 1.069-7.06 7.06-4.256-4.257 1.069-1.069 3.187 3.188Z"/>
</svg>
